teeny/solid/user.svg

<svg width="15" height="15" viewBox="0 0 15 15" fill="none" xmlns="http://www.w3.org/2000/svg">
<path d="M7.5 0C5.56717 0 4 1.56567 4 3.49804C4 5.43041 5.56717 6.99609 7.5 6.99609C9.43283 6.99609 11 5.43041 11 3.49804C11 1.56567 9.43283 0 7.5 0Z" fill="black"/>
<path d="M5.5 8.99414C3.56711 8.99414 2 10.5605 2 12.4936V14.9909H13V12.4936C13 10.5605 11.4329 8.99414 9.5 8.99414H5.5Z" fill="black"/>
</svg>

<svg viewBox="0 0 15 15" xmlns="http://www.w3.org/2000/svg"><g><path d="M7.5 0C5.56 0 4 1.56 4 3.49c0 1.93 1.56 3.49 3.5 3.49 1.93 0 3.5-1.57 3.5-3.5 0-1.94-1.57-3.5-3.5-3.5Z"/><path d="M5.5 8.99c-1.94 0-3.5 1.56-3.5 3.49v2.49h11v-2.5c0-1.94-1.57-3.5-3.5-3.5h-4Z"/></g></svg>
